Catalina-dark/status/24/camera-off.svg

<svg viewBox="0 0 22 22" xmlns="http://www.w3.org/2000/svg">
<path transform="translate(0-.002)" d="m11 3.0898a7.9107 7.9107 0 0 0-7.9102 7.9102 7.9107 7.9107 0 0 0 7.9102 7.9102 7.9107 7.9107 0 0 0 7.9102-7.9102 7.9107 7.9107 0 0 0-7.9102-7.9102zm0 0.87316c0.414 0 0.75 0.336 0.75 0.75 0 0.413-0.336 0.75-0.75 0.75s-0.75-0.337-0.75-0.75c0-0.414 0.336-0.75 0.75-0.75zm-2e-3 2.037c2.757 0 5.002 2.244 5.002 5 0 2.757-2.245 5-5.002 5s-4.998-2.243-4.998-5c0-2.756 2.241-5 4.998-5zm2e-3 1.5c-1.93 0-3.5 1.57-3.5 3.5s1.57 3.5 3.5 3.5 3.5-1.57 3.5-3.5-1.57-3.5-3.5-3.5zm-1.219 1.5c0.09 0 0.166 0.03 0.229 0.1l0.99 0.99 0.99-0.99c0.06-0.07 0.14-0.1 0.229-0.1 0.09 0 0.165 0.03 0.228 0.1l0.459 0.455c0.063 0.063 0.094 0.138 0.094 0.228s-0.031 0.166-0.094 0.227l-0.99 0.99 0.99 0.992c0.063 0.068 0.094 0.138 0.094 0.229 0 0.09-0.031 0.167-0.094 0.23l-0.459 0.457c-0.063 0.063-0.138 0.092-0.228 0.092-0.089 0-0.169-0.029-0.229-0.092l-0.99-0.99-0.99 0.99c-0.063 0.063-0.139 0.092-0.229 0.092s-0.165-0.029-0.228-0.092l-0.463-0.457c-0.06-0.063-0.09-0.14-0.09-0.23 0-0.091 0.03-0.161 0.09-0.229l0.99-0.992-0.99-0.99c-0.06-0.061-0.09-0.137-0.09-0.227s0.03-0.165 0.09-0.228l0.463-0.455c0.063-0.07 0.138-0.1 0.228-0.1z" fill="#4d4d4d" fill-rule="evenodd" stroke="#4d4d4d" stroke-linecap="round" stroke-width=".179"/>
</svg>

<svg xmlns="http://www.w3.org/2000/svg" viewBox="0 0 22 22"><path d="M11 3.089844A7.910653 7.910654 0 0 0 3.089844 11 7.910653 7.910654 0 0 0 11 18.910156 7.910653 7.910654 0 0 0 18.910156 11 7.910653 7.910654 0 0 0 11 3.089844zM11 3.963C11.414 3.963 11.75 4.299 11.75 4.713 11.75 5.126 11.414 5.463 11 5.463 10.586 5.463 10.25 5.126 10.25 4.713 10.25 4.299 10.586 3.963 11 3.963zM10.998 6C13.755 6 16 8.244 16 11 16 13.757 13.755 16 10.998 16 8.241 16 6 13.757 6 11 6 8.244 8.241 6 10.998 6zM11 7.5C9.07 7.5 7.5 9.07 7.5 11 7.5 12.93 9.07 14.5 11 14.5 12.93 14.5 14.5 12.93 14.5 11 14.5 9.07 12.93 7.5 11 7.5zM9.781 9C9.871 9 9.947 9.03 10.01 9.1L11 10.09 11.99 9.1C12.05 9.03 12.13 9 12.219 9 12.309 9 12.384 9.03 12.447 9.1L12.906 9.555C12.969 9.618 13 9.693 13 9.783 13 9.873 12.969 9.949 12.906 10.01L11.916 11 12.906 11.992C12.969 12.06 13 12.13 13 12.221 13 12.311 12.969 12.388 12.906 12.451L12.447 12.908C12.384 12.971 12.309 13 12.219 13 12.13 13 12.05 12.971 11.99 12.908L11 11.918 10.01 12.908C9.947 12.971 9.871 13 9.781 13 9.691 13 9.616 12.971 9.553 12.908L9.09 12.451C9.03 12.388 9 12.311 9 12.221 9 12.13 9.03 12.06 9.09 11.992L10.08 11 9.09 10.01C9.03 9.949 9 9.873 9 9.783 9 9.693 9.03 9.618 9.09 9.555L9.553 9.1C9.616 9.03 9.691 9 9.781 9z" transform="translate(0-.002)" fill-rule="evenodd" stroke="#4d4d4d" stroke-linecap="round" stroke-width=".179" fill="#4d4d4d"/></svg>
